assets/svgSource/xing.svg

<svg viewBox="0 0 13 15" fill="none" xmlns="http://www.w3.org/2000/svg">
<path d="M5.22766 5.72015C5.16981 5.8262 4.41784 7.14698 2.97495 9.68891C2.81748 9.95564 2.62788 10.0906 2.40615 10.0906H0.314116C0.0666711 10.0906 -0.0747258 9.84959 0.0409626 9.62785L2.25832 5.72979C2.26475 5.72979 2.26475 5.72658 2.25832 5.72015L0.847568 3.29069C0.709384 3.04004 0.857208 2.83758 1.12072 2.83758H3.21275C3.44734 2.83758 3.64016 2.96934 3.79119 3.22964L5.22766 5.72015ZM12.2943 0.453113L7.66676 8.58344V8.59308L10.6104 13.9469C10.7357 14.175 10.6168 14.4 10.3372 14.4H8.24198C7.99775 14.4 7.80494 14.2715 7.66354 14.0079L4.69421 8.59308C4.80025 8.40669 6.34919 5.67516 9.34745 0.392055C9.49527 0.131756 9.68166 0 9.90983 0H12.0211C12.2782 0 12.4164 0.215309 12.2943 0.453113Z" fill="currentColor"/>
</svg>

<svg viewBox="0 0 13 15" fill="none" xmlns="http://www.w3.org/2000/svg"><path d="M5.228 5.72c-.058.106-.81 1.427-2.253 3.969-.158.267-.347.402-.569.402H.314c-.247 0-.389-.241-.273-.463L2.258 5.73c.007 0 .007-.003 0-.01L.848 3.29c-.139-.25.01-.452.273-.452h2.092c.234 0 .427.131.578.392l1.437 2.49ZM12.294.453l-4.627 8.13v.01l2.943 5.354c.126.228.007.453-.273.453H8.242c-.244 0-.437-.129-.578-.392l-2.97-5.415 4.653-8.2C9.495.131 9.682 0 9.91 0h2.111c.257 0 .395.215.273.453Z" fill="currentColor"/></svg>
